src/assets/icons/ico_extension.svg

<?xml version="1.0" encoding="utf-8"?>
<!-- Generator: Adobe Illustrator 26.0.1, SVG Export Plug-In . SVG Version: 6.00 Build 0)  -->
<svg version="1.1" id="Layer_1" xmlns="http://www.w3.org/2000/svg" xmlns:xlink="http://www.w3.org/1999/xlink" x="0px" y="0px"
	 viewBox="0 0 64 64" style="enable-background:new 0 0 64 64;" xml:space="preserve">
<style type="text/css">
	.st0{fill:#43BBC4;}
</style>
<rect x="59.1646" y="27.5036" transform="matrix(0.3784 -0.9257 0.9257 0.3784 11.1677 72.6368)" class="st0" width="1" height="1.0001"/>
<rect x="56.0743" y="25.7938" transform="matrix(0.3785 -0.9256 0.9256 0.3785 10.4085 68.9822)" class="st0" width="1.0003" height="1.8923"/>
<rect x="49.0677" y="22.9289" transform="matrix(0.3788 -0.9255 0.9255 0.3788 8.6961 60.706)" class="st0" width="1.0003" height="1.8927"/>
<rect x="42.0611" y="20.0644" transform="matrix(0.3788 -0.9255 0.9255 0.3788 6.9948 52.4419)" class="st0" width="1.0003" height="1.8923"/>
<rect x="45.5645" y="21.497" transform="matrix(0.3788 -0.9255 0.9255 0.3788 7.8453 56.5742)" class="st0" width="1.0003" height="1.8923"/>
<rect x="38.5579" y="18.632" transform="matrix(0.3785 -0.9256 0.9256 0.3785 6.1543 48.3219)" class="st0" width="1.0003" height="1.8927"/>
<rect x="35.0548" y="17.1996" transform="matrix(0.3785 -0.9256 0.9256 0.3785 5.3005 44.1859)" class="st0" width="1.0003" height="1.8923"/>
<rect x="52.5709" y="24.3617" transform="matrix(0.3785 -0.9256 0.9256 0.3785 9.5569 64.8495)" class="st0" width="1.0003" height="1.8923"/>
<rect x="57.3599" y="28.5106" class="st0" width="1" height="1"/>
<path class="st0" d="M32,21.9331c-1.5576,0-2.8247,1.2671-2.8247,2.8247c0,1.5571,1.2671,2.8242,2.8247,2.8242
	s2.8247-1.2671,2.8247-2.8242C34.8247,23.2002,33.5576,21.9331,32,21.9331z M32,26.582c-1.0063,0-1.8247-0.8184-1.8247-1.8242
	c0-1.0063,0.8184-1.8247,1.8247-1.8247s1.8247,0.8184,1.8247,1.8247C33.8247,25.7637,33.0063,26.582,32,26.582z"/>
<path class="st0" d="M62.7173,36.1875h-1.4438v-1.5117c0-1.7977-1.2446-3.2993-2.9136-3.7191v-0.5519h-1v0.4311
	c-2.0953,0.0369-3.79,1.7418-3.79,3.8399v1.5117h-3.624c-0.2764,0-0.5,0.2236-0.5,0.5v5.9238H35.8267v-6.4746
	c0-2.1104-1.7168-3.8271-3.8267-3.8271s-3.8267,1.7168-3.8267,3.8271v6.4746H14.5542v-5.9238c0-0.2764-0.2236-0.5-0.5-0.5h-3.624
	v-1.5117c0-2.0981-1.6948-3.803-3.79-3.8399v-3.2327l25.3617-10.3699l0.7365,0.3014l0.3789-0.9258l-0.9213-0.3771
	c-0.0005-0.0002-0.001-0.0004-0.0015-0.0006l-0.003-0.0012l-0.0002,0.0005c-0.1171-0.0481-0.2521-0.0527-0.3787-0.0005L3.687,27.73
	c-0.2554,0.1045-0.3779,0.3965-0.2734,0.6523c0.0791,0.1934,0.2661,0.3105,0.4629,0.3105c0.063,0,0.1274-0.0117,0.1895-0.0371
	l1.5742-0.6437v2.9446c-1.6689,0.4197-2.9136,1.9213-2.9136,3.7191v1.5117H1.2827c-0.2764,0-0.5,0.2236-0.5,0.5v6.4238v4.1953
	c0,0.2764,0.2236,0.5,0.5,0.5h61.4346c0.2764,0,0.5-0.2236,0.5-0.5v-4.1953v-6.4238
	C63.2173,36.4111,62.9937,36.1875,62.7173,36.1875z M54.5698,34.6758c0-1.5693,1.2817-2.8467,2.8574-2.8467
	c1.5693,0,2.8462,1.2773,2.8462,2.8467v1.5117h-5.7036V34.6758z M50.4458,37.1875h11.7715v5.4238H50.4458V37.1875z M29.1733,36.1367
	c0-1.5586,1.2681-2.8271,2.8267-2.8271s2.8267,1.2686,2.8267,2.8271v6.4746h-5.6533V36.1367z M3.7266,34.6758
	c0-1.5693,1.2769-2.8467,2.8462-2.8467c1.5757,0,2.8574,1.2773,2.8574,2.8467v1.5117H3.7266V34.6758z M13.5542,37.1875v5.4238
	H1.7827v-5.4238H13.5542z M62.2173,46.8066H1.7827v-3.1953h26.8906h6.6533h26.8906V46.8066z"/>
<path class="st0" d="M17.1089,30.9121c-0.2764,0-0.5,0.2236-0.5,0.5v5.1934c0,0.2764,0.2236,0.5,0.5,0.5h8.7065
	c0.2764,0,0.5-0.2236,0.5-0.5v-5.1934c0-0.2764-0.2236-0.5-0.5-0.5H17.1089z M25.3154,36.1055h-7.7065v-4.1934h7.7065V36.1055z"/>
<path class="st0" d="M37.6846,31.4121v5.1934c0,0.2764,0.2236,0.5,0.5,0.5h8.7065c0.2764,0,0.5-0.2236,0.5-0.5v-5.1934
	c0-0.2764-0.2236-0.5-0.5-0.5h-8.7065C37.9082,30.9121,37.6846,31.1357,37.6846,31.4121z M38.6846,31.9121h7.7065v4.1934h-7.7065
	V31.9121z"/>
</svg>

<?xml version="1.0" encoding="UTF-8" standalone="no"?>
<!DOCTYPE svg PUBLIC "-//W3C//DTD SVG 1.1//EN" "http://www.w3.org/Graphics/SVG/1.1/DTD/svg11.dtd">
<svg width="100%" height="100%" viewBox="0 0 65 65" version="1.1" xmlns="http://www.w3.org/2000/svg" xmlns:xlink="http://www.w3.org/1999/xlink" xml:space="preserve" xmlns:serif="http://www.serif.com/" style="fill-rule:evenodd;clip-rule:evenodd;stroke-linejoin:round;stroke-miterlimit:2;">
    <g transform="matrix(1,0,0,1,-73,-244)">
        <g transform="matrix(0.0625,0,0,0.0833333,73.113,244.05)">
            <rect id="ico_extension" x="0" y="0" width="1024" height="768" style="fill:none;"/>
            <g id="ico_extension1" serif:id="ico_extension">
                <g id="ico_extension.svg" transform="matrix(16,0,0,12,512,384)">
                    <g transform="matrix(1,0,0,1,-32,-32)">
                        <g>
                            <g>
                                <g transform="matrix(0.3784,-0.9257,0.9257,0.3784,11.1677,72.6368)">
                                    <rect x="59.165" y="27.504" width="1" height="1" style="fill:rgb(26,91,87);"/>
                                </g>
                                <g transform="matrix(0.3785,-0.9256,0.9256,0.3785,10.4085,68.9822)">
                                    <rect x="56.074" y="25.794" width="1" height="1.892" style="fill:rgb(26,91,87);"/>
                                </g>
                                <g transform="matrix(0.3788,-0.9255,0.9255,0.3788,8.6961,60.706)">
                                    <rect x="49.068" y="22.929" width="1" height="1.893" style="fill:rgb(26,91,87);"/>
                                </g>
                                <g transform="matrix(0.3788,-0.9255,0.9255,0.3788,6.9948,52.4419)">
                                    <rect x="42.061" y="20.064" width="1" height="1.892" style="fill:rgb(26,91,87);"/>
                                </g>
                                <g transform="matrix(0.3788,-0.9255,0.9255,0.3788,7.8453,56.5742)">
                                    <rect x="45.565" y="21.497" width="1" height="1.892" style="fill:rgb(26,91,87);"/>
                                </g>
                                <g transform="matrix(0.3785,-0.9256,0.9256,0.3785,6.1543,48.3219)">
                                    <rect x="38.558" y="18.632" width="1" height="1.893" style="fill:rgb(26,91,87);"/>
                                </g>
                                <g transform="matrix(0.3785,-0.9256,0.9256,0.3785,5.3005,44.1859)">
                                    <rect x="35.055" y="17.2" width="1" height="1.892" style="fill:rgb(26,91,87);"/>
                                </g>
                                <g transform="matrix(0.3785,-0.9256,0.9256,0.3785,9.5569,64.8495)">
                                    <rect x="52.571" y="24.362" width="1" height="1.892" style="fill:rgb(26,91,87);"/>
                                </g>
                                <rect x="57.36" y="28.511" width="1" height="1" style="fill:rgb(26,91,87);"/>
                                <path d="M32,21.933C30.442,21.933 29.175,23.2 29.175,24.758C29.175,26.315 30.442,27.582 32,27.582C33.558,27.582 34.825,26.315 34.825,24.758C34.825,23.2 33.558,21.933 32,21.933ZM32,26.582C30.994,26.582 30.175,25.764 30.175,24.758C30.175,23.752 30.994,22.933 32,22.933C33.006,22.933 33.825,23.752 33.825,24.758C33.825,25.764 33.006,26.582 32,26.582Z" style="fill:rgb(26,91,87);fill-rule:nonzero;"/>
                                <path d="M62.717,36.188L61.274,36.188L61.274,34.676C61.274,32.878 60.029,31.377 58.36,30.957L58.36,30.405L57.36,30.405L57.36,30.836C55.265,30.873 53.57,32.578 53.57,34.676L53.57,36.188L49.946,36.188C49.669,36.188 49.446,36.411 49.446,36.688L49.446,42.611L35.827,42.611L35.827,36.137C35.827,34.026 34.11,32.31 32,32.31C29.89,32.31 28.173,34.026 28.173,36.137L28.173,42.611L14.554,42.611L14.554,36.688C14.554,36.411 14.331,36.188 14.054,36.188L10.43,36.188L10.43,34.676C10.43,32.578 8.735,30.873 6.64,30.836L6.64,27.603L32.002,17.233L32.738,17.535L33.117,16.609L32.196,16.232C32.195,16.232 32.191,16.23 32.191,16.23L32.191,16.231C32.074,16.182 31.939,16.178 31.813,16.23L3.687,27.73C3.432,27.835 3.309,28.127 3.414,28.382C3.493,28.576 3.68,28.693 3.876,28.693C3.939,28.693 4.004,28.681 4.066,28.656L5.64,28.012L5.64,30.957C3.971,31.376 2.727,32.878 2.727,34.676L2.727,36.187L1.283,36.187C1.006,36.187 0.783,36.411 0.783,36.687L0.783,47.307C0.783,47.583 1.006,47.807 1.283,47.807L62.717,47.807C62.994,47.807 63.217,47.583 63.217,47.307L63.217,36.687C63.217,36.411 62.994,36.188 62.717,36.188ZM54.57,34.676C54.57,33.107 55.852,31.829 57.427,31.829C58.996,31.829 60.273,33.106 60.273,34.676L60.273,36.188L54.57,36.188L54.57,34.676ZM50.446,37.188L62.217,37.188L62.217,42.611L50.446,42.611L50.446,37.188ZM29.173,36.137C29.173,34.578 30.441,33.31 32,33.31C33.559,33.31 34.827,34.578 34.827,36.137L34.827,42.611L29.173,42.611L29.173,36.137L29.173,36.137ZM3.727,34.676C3.727,33.107 5.004,31.829 6.573,31.829C8.149,31.829 9.43,33.106 9.43,34.676L9.43,36.188L3.727,36.188L3.727,34.676ZM13.554,37.188L13.554,42.611L1.783,42.611L1.783,37.188L13.554,37.188ZM62.217,46.807L1.783,46.807L1.783,43.611L62.217,43.611L62.217,46.807L62.217,46.807Z" style="fill:rgb(26,91,87);fill-rule:nonzero;"/>
                                <path d="M17.109,30.912C16.833,30.912 16.609,31.136 16.609,31.412L16.609,36.606C16.609,36.882 16.833,37.106 17.109,37.106L25.815,37.106C26.092,37.106 26.315,36.882 26.315,36.606L26.315,31.412C26.315,31.136 26.092,30.912 25.815,30.912L17.109,30.912ZM25.315,36.106L17.609,36.106L17.609,31.912L25.315,31.912L25.315,36.106Z" style="fill:rgb(26,91,87);fill-rule:nonzero;"/>
                                <path d="M37.685,31.412L37.685,36.606C37.685,36.882 37.908,37.106 38.185,37.106L46.891,37.106C47.168,37.106 47.391,36.882 47.391,36.606L47.391,31.412C47.391,31.136 47.168,30.912 46.891,30.912L38.185,30.912C37.908,30.912 37.685,31.136 37.685,31.412ZM38.685,31.912L46.391,31.912L46.391,36.106L38.685,36.106L38.685,31.912Z" style="fill:rgb(26,91,87);fill-rule:nonzero;"/>
                            </g>
                        </g>
                    </g>
                </g>
            </g>
        </g>
    </g>
</svg>
